X: 290
T: Rorate caeli – Tollite portas
C: Anonim
L: 1/4
M: C
N: Derived from pl-kk--kk-i-277--002-004_anonim--rorate-caeli-tollite-portas.krn
K: C clef=tenor
G,4C4 [|] 
A,4A,4 [|] 
!breath!A,4C4 [|] 
A,4B,4 [|] 
C4A,4 [|] 
G,4C4 [|] 
G,4A,4 [|] 
C4A,4 [|] 
C4A,4 [|] 
C4D4 [|] 
E4C4 [|] 
B,4A,4 [|] 
A,4G,4 [|] 
C4A,4 [|] 
!breath!G,4G,4 [|] 
F,4G,4 [|] 
A,4G,4 [|] 
A,4A,4 [|] 
F,4G,4 [|] 
A,4B,4 [|] 
C4A,4 [|] 
G,4A,4 [|] 
C4D4 [|] 
C4C4 [|] 
A,4C4 [|] 
!breath!A,4C4 [|] 
C4C4 [|] 
D4D4 [|] 
B,4C4 [|] 
A,4G,4 [|] 
A,4!breath!A,4 [|] 
C4A,4 [|] 
C4D4 [|] 
A,4D4 [|] 
E4C4 [|] 
A,4C4 [|] 
B,4C4 [|] 
!breath!A,4A,4 [|] 
C4A,4 [|] 
C4C4 [|] 
C4A,8 [|] 
C4 [|] 
D4C4 [|] 
D4E4 [|] 
C4C4 [|] 
D4!breath!C4 [|] 
C4C4 [|] 
C4C4 [|] 
B,4D4 [|] 
E4C4 [|] 
B,4D4 [|] 
C4D4 [|] 
C4B,4 [|] 
A,4A,4 [|] 
C4A,4 [|] 
G,4A,4 [|] 
C4A,4 [|] 
C8 [|] 
B,4!breath!A,4 [|] 
C4G,8 [|] 
!breath!F,4 [|] 
F,4G,4 [|] 
A,4C4 [|] 
B,4A,4 [|] 
C4G,4 [|] 
A,4C4 [|] 
A,4C4 [|] 
D4D4 [|] 
C4D4 [|] 
E4D8 [|] 
C4 [|] 
[M:C]A,4A,4 [|] 
C4B,4 [|] 
C4D4 [|] 
!breath!D4D4 [|] 
D4D4 [|] 
D4C4 [|] 
D4E4 [|] 
F4D4 [|] 
C4C4 [|] 
D4E4 [|] 
D4E4 [|] 
E4F4 [|] 
E4C4 [|] 
E4D4 [|] 
F4E4 [|] 
D4F4 [|] 
E4!breath!D4 [|] 
D4F4 [|] 
D4E4 [|] 
F4E4 [|] 
D4D4 [|] 
D4D4 [|] 
D4D4 [|] 
D4E4 [|] 
E4C4 [|] 
E4D4 [|] 
C8 [|] 
A,4C4 [|] 
A,4C4 [|] 
D4E4 [|] 
D4C4 [|] 
E4D4 [|] 
C4D4 [|] 
A,4!breath!A,4 [|] 
C4C4 [|] 
C4D4 [|] 
D4C4 [|] 
B,4G,4 [|] 
A,4C4 [|] 
B,4G,4 [|] 
A,4C4 [|] 
B,4D4 [|] 
E4C4 [|] 
B,4A,4 [|] 
A,8 [|] 
C4A,4 [|] 
G,4A,4 [|] 
C8 [|] 
A,4C8 [|] 
A,4 [|] 
C4G,4 [|] 
F,4F,4 [|] 
G,4A,4 [|] 
C4B,4 [|] 
A,4C4 [|] 
G,4A,4 [|] 
C4A,4 [|] 
C4D4 [|] 
D4E4 [|] 
C4B,4 [|] 
C4D4 [|] 
G,4A,4 [|] 
C8 [|] 
E4D4 [|] 
C8 [|] 
E4D4 [|] 
C8 [|] 
B,4A,4 [|] 
B,4C8 [|] 
!fermata!A,4 [|] 

